(O1244)
(T01 D=9.525 CR=0 - ZMIN=-17.78 - FLAT END MILL)
(T02 D=9.525 CR=0 TAPER=45DEG - ZMIN=-17.904 - CHAMFER MILL)
(T03 D=9.525 CR=0.762 - ZMIN=-18.8 - BULLNOSE END MILL)
(T15 D=6.35 CR=3.175 - ZMIN=-16.43 - BALL END MILL)
(T20 D=3 CR=1.5 - ZMIN=-9.5 - PROBE)
G00 G90 G40 G80
G94 G49 G69
G17
(F360 PROJECT - ZTC-2264-005-REV A-2024-01-08 V2)

(SETXY 3)
G54
N1 G100 T20 X23 Y-16 G43 Z15 H20
M400
G00 X23 Y-16
G00 Z15
G65 P8703 Z5 M1
G65 P8703 Z-9.5 M3
G65 P8700 S22 H243 U0 V117 I23 J-16 W54. M3
G00 Z5
G00 Z15

(SETZ 10)
G54
G00 X38.198 Y-15.764
G00 Z15
G65 P8703 Z5 M3
G65 P8700 Z-6 K0 W54. M3
G00 Z5
G00 Z15

(SETXY 4)
G54
G00 X23 Y-16
G00 Z15
G65 P8703 Z5 M3
G65 P8703 Z-9.5 M3
G65 P8700 S22 H243 U0 V117 I23 J-16 W54. M2
G00 Z5
G00 Z15
M299

(ROUGH PERIM 11)
G54
M01
N2 G100 T03 X42.002 Y9.611 G43 Z15 H03 D03 S4010 M03
M480
M269
G00 X42.002 Y9.611
G00 Z15
G00 Z-16.895
G01 Z-17.847 F1805
G01 X42.005 Y9.606 Z-17.962
G01 X42.017 Y9.588 Z-18.075
G01 X42.036 Y9.56 Z-18.185
G01 X42.061 Y9.52 Z-18.29
G01 X42.094 Y9.47 Z-18.389
G01 X42.133 Y9.411 Z-18.479
G01 X42.178 Y9.343 Z-18.56
G01 X42.227 Y9.267 Z-18.631
G01 X42.281 Y9.185 Z-18.691
G01 X42.339 Y9.097 Z-18.738
G01 X42.399 Y9.005 Z-18.772
G01 X42.461 Y8.911 Z-18.793
G01 X42.524 Y8.815 Z-18.8
G03 X45.85 Y4.767 I20.34 J13.327
G01 X45.896 Y4.725
G03 X48.373 Y4.233 I2.483 J6.012
G03 X58.101 Y4.042 I6.832 J100.373
G01 X60.539 Y4.013
G01 X68.662
G01 X81.659 Y4.012
G02 X86.552 Y0.31 I-0.368 J-5.571
G02 X87.678 Y-5.222 I-12.591 J-5.442
G01 X87.742 Y-6.033
G01 X87.77 Y-6.845
G01 X87.789 Y-7.657
G02 X87.832 Y-16.592 I-541.272 J-7.05
G01 Y-23.903
G01 Y-29.589
G02 X84.362 Y-34.625 I-5.431 J0.029
G02 X78.855 Y-35.842 I-5.481 J11.739
G02 X62.612 Y-35.983 I-10.509 J274.129
G01 X49.684 Y-36.013
G03 X47.248 Y-37.087 J-3.3
G03 X47.027 Y-37.816 Z-18.748 I0.725 J-0.617
G03 X47.355 Y-38.43 Z-18.7 I0.946 J0.112 F15000
G03 X48.061 Y-38.653 I0.618 J0.725
G01 X75.957 Y-39.316
G01 X80.156 Y-39.07
G01 X82.556 Y-38.712
G01 X84.174 Y-38.296
G01 X86.455 Y-37.271
G01 X88.046 Y-36.201
G01 X89.235 Y-35.004
G01 X90.216 Y-33.508
G01 X90.824 Y-32.011
G01 X91.139 Y-30.216
G01 X91.055 Y-6.573
G01 X90.753 Y-2.183
G01 X90.025 Y0.61
G03 X85.978 Y6.02 I-10.083 J-3.324
G01 X84.634 Y6.668
G01 X83.456 Y7.091
G01 X81.956 Y7.332
G01 X46.861 Y7.432
G03 X45.44 Y6.099 I0.143 J-1.576
G03 X45.489 Y5.398 Z-18.747 I1.564 J-0.243
G01 X45.491 Y5.395 Z-18.748
G01 X45.896 Y4.725 Z-18.8 F1805
G01 X46.142 Y4.501
G03 X49.784 Y3.551 I3.683 J6.668
G03 X60.336 Y3.302 I7.458 J92.307
G01 X62.774 Y3.263
G01 X67.648
G01 X79.02
G02 X85.911 Y-1.297 I0.643 J-6.514
G02 X86.975 Y-8.482 I-18.239 J-6.373
G01 X87.033 Y-9.296
G02 X87.082 Y-19.043 I-592.708 J-7.832
G01 Y-24.729
G02 X86.914 Y-29.592 I-26.373 J-1.521
G02 X81.794 Y-34.345 I-6.685 J2.066
G02 X74.563 Y-35.178 I-6.246 J22.435
G02 X64.815 Y-35.262 I-7.236 J274.37
G01 X59.128
G01 X51.818
G03 X48.501 Y-35.835 I-0.58 J-6.539
G01 X48.168 Y-36.121
G01 X47.858 Y-36.419
G03 X47.637 Y-37.148 Z-18.748 I0.725 J-0.617
G03 X47.965 Y-37.761 Z-18.7 I0.946 J0.112 F15000
G03 X48.661 Y-37.986 I0.618 J0.725
G01 X77.456 Y-38.431
G01 X81.078 Y-37.997
G01 X83.226 Y-37.398
G01 X84.955 Y-36.645
G01 X86.602 Y-35.603
G01 X88.161 Y-34.106
G01 X89.22 Y-32.61
G01 X89.892 Y-31.114
G01 X90.308 Y-29.318
G01 X90.377 Y-20.04
G01 X90.288 Y-7.77
G01 X90.127 Y-4.777
G01 X89.57 Y-1.784
G01 X88.734 Y0.61
G03 X83.863 Y5.696 I-9.657 J-4.373
G01 X82.11 Y6.296
G01 X81.056 Y6.496
G01 X47.161 Y7.211
G03 X45.684 Y5.866 I0.089 J-1.58
G03 X45.738 Y5.163 Z-18.748 I1.565 J-0.235
G03 X46.142 Y4.501 Z-18.8 I1.512 J0.469 F1805
G01 X46.561 Y4.118
G03 X50.511 Y2.896 I4.124 J6.332
G03 X59.344 Y2.553 I6.743 J59.829
G03 X69.905 Y2.513 I7.082 J467.156
G01 X77.216
G02 X81.944 Y1.622 I0.82 J-8.648
G02 X85.695 Y-4.399 I-4.765 J-7.147
G02 X86.268 Y-11.671 I-32.27 J-6.205
G02 X86.314 Y-27.106 I-543.048 J-9.303
G02 X80.904 Y-33.465 I-7.029 J0.499
G02 X75.313 Y-34.361 I-5.535 J16.639
G02 X63.13 Y-34.512 I-9.219 J252.875
G01 X57.444
G01 X55.007
G03 X49.884 Y-34.769 I-1.365 J-24.028
G03 X48.498 Y-35.717 I1.587 J-3.805
G03 X48.278 Y-36.447 Z-18.748 I0.725 J-0.617
G03 X48.606 Y-37.06 Z-18.7 I0.946 J0.112 F15000
G03 X49.26 Y-37.287 I0.618 J0.725
G01 X74.728 Y-37.698
G01 X78.356 Y-37.427
G01 X81.056 Y-36.944
G01 X83.456 Y-36.081
G03 X89.034 Y-30.222 I-4.762 J10.12
G01 X89.432 Y-28.671
G01 X89.657 Y-26.026
G01 X89.524 Y-9.266
G01 X89.319 Y-5.974
G01 X88.889 Y-3.281
G01 X88.125 Y-0.886
G01 X87.188 Y0.909
G01 X85.555 Y2.937
G01 X83.456 Y4.551
G01 X81.956 Y5.234
G01 X80.756 Y5.563
G01 X78.656 Y5.788
G01 X47.761 Y6.829
G03 X46.103 Y5.484 I-0.093 J-1.58
G03 X46.157 Y4.78 Z-18.748 I1.565 J-0.235
G03 X46.561 Y4.118 Z-18.8 I1.512 J0.469 F1805
G01 X47.126 Y3.603
G03 X51.398 Y2.2 I4.486 J6.452
G03 X58.601 Y1.814 I5.937 J43.477
G01 X62.337 Y1.779
G01 X66.074 Y1.756
G01 X69.811 Y1.746
G01 X73.548 Y1.749
G01 X77.284 Y1.765
G02 X84.453 Y-3.791 I-0.032 J-7.444
G02 X85.462 Y-10.995 I-20.524 J-6.549
G02 X85.554 Y-14.244 I-41.802 J-2.814
G02 X85.539 Y-26.427 I-454.214 J-5.513
G02 X79.886 Y-32.684 I-7.488 J1.084
G02 X72.674 Y-33.648 I-6.536 J21.431
G02 X52.542 Y-33.759 I-13.452 J614.022
G03 X50.982 Y-33.981 I2.33 J-21.978
G03 X49.172 Y-34.979 I0.573 J-3.177
G01 X48.498 Y-35.717
G03 X48.278 Y-36.447 Z-18.748 I0.725 J-0.617
G03 X48.606 Y-37.06 Z-18.7 I0.946 J0.112 F15000
G03 X49.26 Y-37.287 I0.618 J0.725
G01 X74.757 Y-36.928
G01 X78.356 Y-36.522
G01 X81.056 Y-35.792
G01 X83.012 Y-34.984
G01 X84.655 Y-33.952
G03 X88.776 Y-26.831 I-6.026 J8.24
G01 X88.872 Y-23.931
G01 X88.775 Y-10.763
G01 X88.638 Y-7.77
G01 X88.255 Y-5.005
G01 X87.502 Y-2.383
G01 X86.521 Y-0.288
G01 X85.169 Y1.508
G01 X84.355 Y2.32
G01 X82.556 Y3.691
G01 X81.356 Y4.308
G01 X79.856 Y4.75
G01 X78.056 Y5.019
G01 X48.361 Y6.311
G03 X46.668 Y4.969 I-0.128 J-1.577
G03 X46.721 Y4.265 Z-18.748 I1.565 J-0.235
G03 X47.126 Y3.603 Z-18.8 I1.512 J0.469 F1805
G01 X47.781 Y3.004
G03 X52.021 Y1.519 I4.614 J6.379
G03 X60.802 Y1.067 I7.003 J50.554
G03 X76.236 Y1.013 I10.452 J772.185
G02 X83.737 Y-4.949 I-0.098 J-7.822
G01 X83.938 Y-5.238
G01 X84.126 Y-5.521
G02 X85.162 Y-8.967 I-4.12 J-3.118
G01 Y-23.033
G02 X85.041 Y-24.529 I-6.727 J-0.208
G02 X83.333 Y-29.031 I-8.789 J0.761
G02 X76.231 Y-32.512 I-7.733 J6.791
G02 X68.941 Y-32.957 I-6.159 J41.009
G01 X60.745 Y-33.006
G01 X52.549 Y-33.071
G03 X49.802 Y-34.25 I0.412 J-4.749
G01 X49.172 Y-34.98
G03 X48.952 Y-35.709 Z-18.748 I0.725 J-0.617
G03 X49.28 Y-36.322 Z-18.7 I0.946 J0.112 F15000
G03 X49.86 Y-36.549 I0.618 J0.725
G01 X75.057 Y-36.054
G01 X78.356 Y-35.538
G01 X80.756 Y-34.805
G01 X82.556 Y-33.948
G01 X84.372 Y-32.697
G01 X85.928 Y-31.114
G03 X86.154 Y-30.814 I-1.877 J1.651
G01 X86.668 Y-29.917
G01 X88.076 Y-25.427
G03 X86.053 Y-23.505 I-1.526 J0.42
G03 X85.45 Y-23.87 Z-18.748 I0.496 J-1.503
G03 X85.041 Y-24.529 Z-18.8 I1.1 J-1.137 F1805
G02 X84.242 Y-26.327 I-5.061 J1.175
G02 X76.414 Y-31.575 I-9.352 J5.487
G02 X67.518 Y-32.198 I-7.409 J41.961
G01 X60.446 Y-32.254
G01 X53.374 Y-32.325
G03 X50.466 Y-33.515 I0.288 J-4.851
G01 X49.82 Y-34.27
G03 X49.599 Y-34.999 Z-18.748 I0.725 J-0.617
G03 X49.927 Y-35.613 Z-18.7 I0.946 J0.112 F15000
G03 X50.46 Y-35.836 I0.618 J0.725
G01 X74.457 Y-35.236
G01 X77.972 Y-34.651
G01 X80.512 Y-33.807
G01 X82.286 Y-32.909
G01 X83.194 Y-32.311
G01 X86.606 Y-28.42
G03 X85.551 Y-25.729 I-1.128 J1.11
G01 X85.466 Y-25.727 Z-18.706
G03 X84.856 Y-25.855 Z-18.748 I0.012 J-1.583
G03 X84.24 Y-26.325 Z-18.8 I0.622 J-1.455 F1805
G02 X81.956 Y-28.387 I-5.592 J3.897
G02 X71.933 Y-31.263 I-10.131 J16.409
G02 X57.316 Y-31.484 I-10.222 J192.358
G03 X52.829 Y-31.794 I-0.074 J-31.53
G03 X51.161 Y-32.801 I0.943 J-3.446
G01 X50.487 Y-33.539
G01 X50.327 Y-33.807 Z-18.779
G03 X50.267 Y-34.27 Z-18.748 I0.886 J-0.349
G03 X50.596 Y-34.882 Z-18.7 I0.946 J0.113 F15000
G03 X51.36 Y-35.098 I0.617 J0.726
G01 X74.457 Y-34.372
G01 X76.557 Y-34.049
G01 X83.156 Y-31.315
G03 X83.395 Y-28.467 I-0.558 J1.481
G03 X82.721 Y-28.256 Z-18.748 I-0.797 J-1.367
G03 X82.256 Y-28.289 Z-18.779 I-0.123 J-1.578 F1805
G01 X81.956 Y-28.387 Z-18.8
G02 X80.591 Y-28.857 I-2.315 J4.514
G02 X66.147 Y-30.679 I-12.916 J44.218
G01 X62.285 Y-30.728
G01 X58.423 Y-30.787
G01 X54.562 Y-30.858
G03 X51.901 Y-31.968 I0.453 J-4.829
G01 X51.66 Y-32.255
G01 X51.161 Y-32.801
G03 X50.941 Y-33.53 Z-18.748 I0.725 J-0.617
G03 X51.269 Y-34.143 Z-18.7 I0.946 J0.112 F15000
G03 X51.96 Y-34.368 I0.618 J0.725
G01 X81.056 Y-31.987
G03 X81.962 Y-29.299 I-0.212 J1.568
G03 X81.364 Y-28.924 Z-18.748 I-1.118 J-1.12
G03 X80.591 Y-28.857 Z-18.8 I-0.52 J-1.495 F1805
G02 X79.091 Y-28.946 I-1.168 J6.921
G01 X75.583 Y-29.328
G01 X72.074 Y-29.704
G02 X56.648 Y-30.015 I-12.221 J223.714
G03 X53.391 Y-30.646 I0.125 J-9.365
G01 X53.093 Y-30.895
G03 X51.921 Y-31.991 I5.893 J-7.481
G01 X51.851 Y-32.077 Z-18.793
G01 X51.791 Y-32.171 Z-18.785
G01 X51.743 Y-32.272 Z-18.778
G01 X51.707 Y-32.378 Z-18.77
G01 X51.684 Y-32.487 Z-18.763
G01 X51.673 Y-32.598 Z-18.755
G01 X51.676 Y-32.71 Z-18.748
G03 X51.986 Y-33.333 Z-18.7 I0.949 J0.084 F15000
G03 X52.56 Y-33.576 I0.639 J0.706
G01 X79.256 Y-32.099
G03 X80.35 Y-29.65 I-0.22 J1.567
G03 X79.836 Y-29.166 Z-18.748 I-1.314 J-0.882
G03 X79.091 Y-28.95 Z-18.8 I-0.8 J-1.365 F1805
G01 X74.457
G02 X56.183 Y-29.342 I-25.835 J778.163
G01 X55.851 Y-29.444
G01 X55.526 Y-29.532
G01 X55.211 Y-29.652
G03 X53.093 Y-30.895 I3.513 J-8.41
G03 X52.747 Y-31.574 Z-18.748 I0.605 J-0.736
G03 X52.962 Y-32.235 Z-18.7 I0.951 J-0.057 F15000
G03 X53.777 Y-32.58 I0.736 J0.604
G01 X74.503 Y-30.851
G03 X75.376 Y-29.934 I-0.079 J0.949
G03 X75.144 Y-29.279 Z-18.748 I-0.952 J0.032
G03 X74.457 Y-28.95 Z-18.8 I-0.72 J-0.623 F1805
G01 X59.159
G03 X55.208 Y-29.643 I-0.236 J-10.255
G01 X55.11 Y-29.699 Z-18.793
G01 X55.019 Y-29.767 Z-18.785
G01 X54.937 Y-29.844 Z-18.778
G01 X54.865 Y-29.93 Z-18.77
G01 X54.803 Y-30.024 Z-18.763
G01 X54.753 Y-30.124 Z-18.755
G01 X54.715 Y-30.23 Z-18.748
G03 X54.768 Y-30.923 Z-18.7 I0.911 J-0.279 F15000
G03 X55.56 Y-31.459 I0.858 J0.414
G01 X80.156 Y-32.252
G01 X82.256 Y-31.858
G01 X84.134 Y-30.959
G01 X85.426 Y-29.917
G01 X86.835 Y-28.42
G03 X87.053 Y-28.121 I-1.906 J1.617
G01 X87.825 Y-26.624
G01 X88.255 Y-25.232
G01 X88.471 Y-23.632
G01 X88.458 Y-7.944
G01 X88.05 Y-5.974
G01 X87.258 Y-4.178
G01 X85.517 Y-0.886
G01 X84.149 Y0.909
G01 X83.156 Y1.873
G03 X82.856 Y2.106 I-1.681 J-1.851
G01 X80.756 Y3.354
G01 X79.181 Y3.902
G01 X77.756 Y4.179
G01 X48.961 Y5.716
G03 X47.323 Y4.37 I-0.072 J-1.581
G03 X47.377 Y3.666 Z-18.748 I1.565 J-0.235
G03 X47.781 Y3.004 Z-18.8 I1.512 J0.469 F1805
G01 X48.504 Y2.344
G03 X52.928 Y0.791 I4.821 J6.657
G03 X60.106 Y0.332 I6.175 J40.171
G01 X63.965 Y0.287
G01 X67.823 Y0.253
G01 X71.682 Y0.231
G01 X75.54 Y0.22
G02 X81.903 Y-3.458 I-0.258 J-7.791
G01 X82.167 Y-3.682
G01 X82.431 Y-3.895
G02 X83.738 Y-5.079 I-4.215 J-5.967
G01 X83.824 Y-5.152 Z-18.793
G01 X83.917 Y-5.214 Z-18.785
G01 X84.017 Y-5.265 Z-18.778
G01 X84.123 Y-5.304 Z-18.77
G01 X84.232 Y-5.33 Z-18.763
G01 X84.343 Y-5.343 Z-18.755
G01 X84.455 Z-18.748
G03 X85.088 Y-5.055 Z-18.7 I-0.051 J0.951 F15000
G03 X85.255 Y-3.965 I-0.684 J0.663
G01 X84.056 Y-0.87
G01 X83.354 Y0.011
G01 X81.956 Y1.321
G01 X80.031 Y2.491
G01 X78.056 Y3.185
G01 X76.857 Y3.429
G01 X49.56 Y5.056
G03 X48.047 Y3.71 I0.051 J-1.582
G03 X48.1 Y3.006 Z-18.748 I1.565 J-0.235
G03 X48.504 Y2.344 Z-18.8 I1.512 J0.469 F1805
G01 X49.26 Y1.653
G03 X53.855 Y0.053 I4.994 J6.94
G03 X61.063 Y-0.414 I6.252 J40.705
G03 X74.06 Y-0.491 I9.851 J565.389
G02 X80.081 Y-2.885 I-0.083 J-8.976
G01 X80.498 Y-3.073
G01 X80.923 Y-3.222
G01 X81.056 Y-3.26
G01 X81.356 Y-3.352
G01 X81.656 Y-3.479
G01 X81.726 Y-3.51
G03 X82.487 Y-3.481 Z-18.748 I0.348 J0.887
G03 X82.961 Y-2.972 Z-18.7 I-0.413 J0.858 F15000
G03 X82.856 Y-2.078 I-0.886 J0.349
G01 X80.756 Y0.728
G01 X79.856 Y1.349
G01 X78.056 Y2.128
G01 X76.257 Y2.592
G01 X50.46 Y4.364
G03 X48.803 Y3.019 I-0.093 J-1.58
G03 X48.856 Y2.315 Z-18.748 I1.565 J-0.235
G03 X49.123 Y1.807 Z-18.786 I1.512 J0.469 F1805
G01 X49.26 Y1.653 Z-18.8
G01 X50.032 Y0.949
G03 X54.141 Y-0.597 I4.795 J6.509
G03 X62.806 Y-1.163 I7.277 J44.812
G01 X66.326 Y-1.212
G01 X69.846 Y-1.251
G01 X73.367 Y-1.278
G02 X78.464 Y-2.864 I-0.48 J-10.527
G01 X78.85 Y-2.953
G01 X79.23 Y-3.025
G01 X79.616 Y-3.053
G01 X79.856 Y-3.056
G01 X80.156 Y-3.083
G03 X80.87 Y-2.818 Z-18.748 I0.053 J0.951
G03 X81.16 Y-2.186 Z-18.7 I-0.661 J0.686 F15000
G03 X80.908 Y-1.485 I-0.951 J0.054
G01 X78.219 Y0.909
G01 X76.857 Y1.458
G01 X74.457 Y1.972
G01 X51.36 Y3.647
G03 X49.574 Y2.315 I-0.221 J-1.567
G03 X49.628 Y1.611 Z-18.748 I1.565 J-0.235
G03 X50.032 Y0.949 Z-18.8 I1.512 J0.469 F1805
G01 X50.81 Y0.239
G03 X54.994 Y-1.334 I4.876 J6.62
G03 X63.68 Y-1.91 I7.342 J44.995
G02 X73.424 Y-2.071 I-6.675 J-696.645
G02 X77.036 Y-3.059 I-8.163 J-36.942
G01 X77.418 Y-3.05
G01 X79.256
G01 X79.616 Y-3.053
G03 X80.307 Y-2.733 Z-18.748 I-0.021 J0.952
G03 X80.546 Y-2.08 Z-18.7 I-0.713 J0.632 F15000
G03 X79.859 Y-1.186 I-0.952 J-0.021
G01 X75.057 Y0.983
G01 X51.96 Y2.951
G03 X50.353 Y1.613 I-0.043 J-1.582
G03 X50.403 Y0.91 Z-18.747 I1.564 J-0.243
G01 X50.404 Y0.909 Z-18.748
G01 X50.81 Y0.239 Z-18.8 F1805
G01 X51.386 Y-0.288
G01 X51.605 Y-0.484
G03 X55.911 Y-2.085 I4.98 J6.805
G03 X64.657 Y-2.658 I7.412 J46.122
G02 X72.776 Y-2.855 I-2.182 J-257.088
G03 X73.968 Y-3.05 I1.228 J3.774
G01 X77.418
G03 X78.105 Y-2.721 Z-18.748 I-0.033 J0.952
G03 X78.337 Y-2.099 Z-18.702 I-0.72 J0.623 F15000
G01 X78.336 Y-2.066 Z-18.7
G03 X77.471 Y-1.15 I-0.952 J-0.032
G01 X52.353 Y1.149
G03 X51.581 Y0.862 I-0.087 J-0.949
G03 X51.314 Y0.22 Z-18.748 I0.686 J-0.661
G03 X51.605 Y-0.484 Z-18.8 I0.952 J-0.019 F1805
G03 X52.86 Y-1.481 I8.961 J9.994
G03 X58.115 Y-3.027 I5.665 J9.554
G01 X58.225 Y-3.022 Z-18.793
G01 X58.333 Y-3.003 Z-18.785
G01 X58.44 Y-2.972 Z-18.778
G01 X58.541 Y-2.929 Z-18.77
G01 X58.638 Y-2.874 Z-18.763
G01 X58.727 Y-2.807 Z-18.755
G01 X58.809 Y-2.731 Z-18.748
G03 X59.055 Y-2.081 Z-18.7 I-0.706 J0.639 F15000
G03 X58.37 Y-1.177 I-0.952 J-0.011
G01 X53.714 Y0.183
G03 X52.695 Y-0.145 I-0.267 J-0.914
G03 X52.497 Y-0.811 Z-18.748 I0.751 J-0.586
G03 X52.86 Y-1.481 Z-18.8 I0.949 J0.081 F1805
G03 X58.559 Y-3.05 I5.226 J7.849
G01 X73.968
G03 X74.657 Y-2.72 I-0.033 J0.952
G01 X74.732 Y-2.633 Z-18.793
G01 X74.806 Y-2.547 Z-18.772
G01 X74.877 Y-2.464 Z-18.738
G01 X74.946 Y-2.385 Z-18.691
G01 X75.01 Y-2.31 Z-18.631
G01 X75.069 Y-2.241 Z-18.56
G01 X75.122 Y-2.18 Z-18.479
G01 X75.168 Y-2.126 Z-18.389
G01 X75.207 Y-2.081 Z-18.29
G01 X75.238 Y-2.045 Z-18.185
G01 X75.26 Y-2.019 Z-18.075
G01 X75.274 Y-2.004 Z-17.962
G01 X75.279 Y-1.998 Z-17.847
G00 Z15
M481
M500 E.25
M269

(FIN PERIM 6)
G54
M01
N3 G100 T01 X47.655 Y7.295 G43 Z15 H01 D01 S6621 M03
M480
M265
G00 X47.655 Y7.295
G00 Z15
G00 Z1
G01 Z-16.828 F12700
G01 X47.65 Y7.29 Z-16.942 F1655
G01 X47.636 Y7.275 Z-17.055
G01 X47.613 Y7.25 Z-17.165
G01 X47.581 Y7.215 Z-17.27
G01 X47.541 Y7.171 Z-17.369
G01 X47.493 Y7.119 Z-17.459
G01 X47.438 Y7.058 Z-17.54
G01 X47.377 Y6.992 Z-17.611
G01 X47.311 Y6.919 Z-17.671
G01 X47.24 Y6.841 Z-17.718
G01 X47.166 Y6.76 Z-17.752
G01 X47.09 Y6.677 Z-17.773
G01 X47.012 Y6.592 Z-17.78
G01 G41 X46.019 Y6.21 D01
G03 X46.11 Y4.191 I1.055 J-0.963
G01 X46.849 Y3.517
G01 X51.677 Y-0.892
G03 X57.886 Y-3.3 I6.209 J6.799
G01 X79.65
G02 X83.018 Y-4.695 J-4.763
G01 X83.518 Y-5.195
G02 X84.912 Y-8.563 I-3.368 J-3.368
G01 Y-23.438
G02 X83.518 Y-26.805 I-4.762
G01 X83.018 Y-27.305
G02 X79.65 Y-28.7 I-3.368 J3.368
G01 X58.629
G03 X51.829 Y-31.699 J-9.208
G01 X48.622 Y-35.211
G01 X47.948 Y-35.95
G03 X48.04 Y-37.968 I1.055 J-0.963
G01 G40 X49.064 Y-38.259
G01 X49.149 Y-38.336 Z-17.773
G01 X49.232 Y-38.412 Z-17.752
G01 X49.313 Y-38.487 Z-17.718
G01 X49.391 Y-38.557 Z-17.671
G01 X49.464 Y-38.624 Z-17.611
G01 X49.53 Y-38.685 Z-17.54
G01 X49.591 Y-38.74 Z-17.459
G01 X49.643 Y-38.787 Z-17.369
G01 X49.687 Y-38.827 Z-17.27
G01 X49.722 Y-38.859 Z-17.165
G01 X49.747 Y-38.882 Z-17.055
G01 X49.762 Y-38.896 Z-16.942
G01 X49.767 Y-38.901 Z-16.828
G00 Z5
G00 X47.655 Y7.295
G00 Z1
G01 Z-16.828 F12700
G01 X47.65 Y7.29 Z-16.942 F1655
G01 X47.636 Y7.275 Z-17.055
G01 X47.613 Y7.25 Z-17.165
G01 X47.581 Y7.215 Z-17.27
G01 X47.541 Y7.171 Z-17.369
G01 X47.493 Y7.119 Z-17.459
G01 X47.438 Y7.058 Z-17.54
G01 X47.377 Y6.992 Z-17.611
G01 X47.311 Y6.919 Z-17.671
G01 X47.24 Y6.841 Z-17.718
G01 X47.166 Y6.76 Z-17.752
G01 X47.09 Y6.677 Z-17.773
G01 X47.012 Y6.592 Z-17.78
G01 G41 X46.019 Y6.21 D01
G03 X46.11 Y4.191 I1.055 J-0.963
G01 X46.849 Y3.517
G01 X51.677 Y-0.892
G03 X57.886 Y-3.3 I6.209 J6.799
G01 X79.65
G02 X83.018 Y-4.695 J-4.763
G01 X83.518 Y-5.195
G02 X84.912 Y-8.563 I-3.368 J-3.368
G01 Y-23.438
G02 X83.518 Y-26.805 I-4.762
G01 X83.018 Y-27.305
G02 X79.65 Y-28.7 I-3.368 J3.368
G01 X58.629
G03 X51.829 Y-31.699 J-9.208
G01 X48.622 Y-35.211
G01 X47.948 Y-35.95
G03 X48.04 Y-37.968 I1.055 J-0.963
G01 G40 X49.064 Y-38.259
G01 X49.149 Y-38.336 Z-17.773
G01 X49.232 Y-38.412 Z-17.752
G01 X49.313 Y-38.487 Z-17.718
G01 X49.391 Y-38.557 Z-17.671
G01 X49.464 Y-38.624 Z-17.611
G01 X49.53 Y-38.685 Z-17.54
G01 X49.591 Y-38.74 Z-17.459
G01 X49.643 Y-38.787 Z-17.369
G01 X49.687 Y-38.827 Z-17.27
G01 X49.722 Y-38.859 Z-17.165
G01 X49.747 Y-38.882 Z-17.055
G01 X49.762 Y-38.896 Z-16.942
G01 X49.767 Y-38.901 Z-16.828
G00 Z15
M269

(CHAM M6 2)
G54
M481
M01
N4 G100 T02 X73.8 Y-16 G43 Z15 H02 D02 S3000 M03
(0)
M480
G00 X73.8 Y-16
G00 Z15
G00 Z5
G98 G82 X73.8 Y-16 Z-17.904 R-14.293 P0.05 F300
G80
G00 Z15
M481

(DEBURR1)
G54
M01
N5 G100 T15 X47.899 Y2.942 G43 Z45 H15 D15 S7639 M03
M08
M265
G00 X47.899 Y2.942
G00 Z45
G00 Z20.808
G00 Z10.808
G01 Z0.808 F2000
G01 X47.891 Y2.938 Z0.675 F2292
G01 X47.866 Y2.926 Z0.546
G01 X47.825 Y2.907 Z0.421
G01 X47.772 Y2.881 Z0.3
G01 X47.627 Y2.812 Z0.071
G01 X47.444 Y2.724 Z-0.137
G01 X47.232 Y2.622 Z-0.321
G01 X47.001 Y2.512 Z-0.477
G01 X46.762 Y2.397 Z-0.604
G01 X46.525 Y2.284 Z-0.697
G01 X46.429 Y2.231 Z-0.738
G01 X46.347 Y2.172 Z-0.794
G01 X46.278 Y2.107 Z-0.863
G01 X46.222 Y2.038 Z-0.943
G01 X46.146 Y1.89 Z-1.133
G01 X46.114 Y1.735 Z-1.35
G01 X46.121 Y1.579 Z-1.582
G01 X46.162 Y1.431 Z-1.816
G01 X46.234 Y1.298 Z-2.041
G01 X46.332 Y1.185 Z-2.244
G01 X47.021 Y0.556 Z-3.439
G01 X47.711 Y-0.074 Z-4.634
G01 X48.401 Y-0.704 Z-5.828
G01 X49.091 Y-1.334 Z-7.023
G01 X49.78 Y-1.964 Z-8.218
G01 X50.471 Y-2.593 Z-9.412
G01 X51.156 Y-3.22 Z-10.599
G01 X51.335 Y-3.375 Z-10.895
G01 X51.513 Y-3.531 Z-11.184
G01 X51.646 Y-3.64 Z-11.385
G01 X51.782 Y-3.747 Z-11.582
G01 X51.917 Y-3.855 Z-11.775
G01 X52.056 Y-3.959 Z-11.962
G01 X52.252 Y-4.101 Z-12.213
G01 X52.46 Y-4.242 Z-12.461
G01 X52.631 Y-4.356 Z-12.66
G01 X52.811 Y-4.469 Z-12.856
G01 X52.995 Y-4.582 Z-13.05
G01 X53.185 Y-4.693 Z-13.242
G01 X53.382 Y-4.799 Z-13.427
G01 X53.581 Y-4.905 Z-13.61
G01 X53.785 Y-5.005 Z-13.785
G01 X53.99 Y-5.103 Z-13.957
G01 X54.203 Y-5.2 Z-14.126
G01 X54.421 Y-5.288 Z-14.286
G01 X54.638 Y-5.375 Z-14.441
G01 X54.857 Y-5.454 Z-14.588
G01 X55.002 Y-5.504 Z-14.682
G01 X55.145 Y-5.552 Z-14.773
G01 X55.433 Y-5.641 Z-14.945
G01 X55.666 Y-5.703 Z-15.072
G01 X55.903 Y-5.762 Z-15.196
G01 X56.144 Y-5.817 Z-15.314
G01 X56.391 Y-5.863 Z-15.425
G01 X56.639 Y-5.906 Z-15.532
G01 X56.89 Y-5.941 Z-15.63
G01 X57.142 Y-5.972 Z-15.723
G01 X57.395 Y-5.995 Z-15.809
G01 X57.62 Y-6.007 Z-15.874
G01 X57.848 Y-6.019 Z-15.94
G01 X58.085 Y-6.024 Z-15.998
G01 X58.331 Y-6.025 Z-16.053
G01 X58.677 Y-6.021 Z-16.113
G01 X59.037 Y-6.023 Z-16.169
G01 X59.407 Y-6.021 Z-16.208
G01 X59.783 Y-6.024 Z-16.24
G01 X60.164 Y-6.021 Z-16.255
G01 X60.55 Y-6.023 Z-16.264
G01 X62.168 Y-6.024 Z-16.265
G01 X63.802
G01 X65.437
G01 X67.072
G01 X68.707
G01 X70.341
G01 X71.976
G01 X73.611
G01 X75.246
G01 X76.88
G01 X78.515
G01 X80.15
G01 X80.253 Y-6.027
G01 X80.356 Y-6.035
G01 X80.459 Y-6.048
G01 X80.56 Y-6.066
G01 X80.661 Y-6.089
G01 X80.76 Y-6.118
G01 X80.858 Y-6.151
G01 X80.954 Y-6.189
G01 X81.048 Y-6.232
G01 X81.139 Y-6.28
G01 X81.228 Y-6.333
G01 X81.314 Y-6.389
G01 X81.398 Y-6.451
G01 X81.478 Y-6.516
G01 X81.554 Y-6.585
G01 X81.627 Y-6.658
G01 X81.697 Y-6.735
G01 X81.762 Y-6.815
G01 X81.823 Y-6.898
G01 X81.88 Y-6.984
G01 X81.932 Y-7.073
G01 X81.98 Y-7.165
G01 X82.023 Y-7.259
G01 X82.062 Y-7.355
G01 X82.095 Y-7.452
G01 X82.123 Y-7.552
G01 X82.147 Y-7.652
G01 X82.165 Y-7.754
G01 X82.178 Y-7.856
G01 X82.186 Y-7.959
G01 X82.188 Y-8.063
G01 Y-9.65
G01 Y-11.238
G01 Y-12.825
G01 Y-14.413
G01 Y-16
G01 Y-17.587
G01 Y-19.175
G01 Y-20.763
G01 X82.189 Y-22.35
G01 X82.188 Y-23.938
G01 X82.186 Y-24.041
G01 X82.178 Y-24.144
G01 X82.165 Y-24.246
G01 X82.147 Y-24.348
G01 X82.123 Y-24.448
G01 X82.095 Y-24.548
G01 X82.062 Y-24.645
G01 X82.023 Y-24.741
G01 X81.98 Y-24.835
G01 X81.932 Y-24.927
G01 X81.88 Y-25.016
G01 X81.823 Y-25.102
G01 X81.762 Y-25.185
G01 X81.697 Y-25.265
G01 X81.627 Y-25.342
G01 X81.554 Y-25.415
G01 X81.478 Y-25.484
G01 X81.398 Y-25.549
G01 X81.314 Y-25.611
G01 X81.228 Y-25.667
G01 X81.139 Y-25.72
G01 X81.048 Y-25.768
G01 X80.954 Y-25.811
G01 X80.858 Y-25.849
G01 X80.76 Y-25.882
G01 X80.661 Y-25.911
G01 X80.56 Y-25.934
G01 X80.459 Y-25.952
G01 X80.356 Y-25.965
G01 X80.253 Y-25.973
G01 X80.15 Y-25.976
G01 X78.515 Y-25.977 Z-16.264
G01 X76.88
G01 X75.246
G01 X73.611 Y-25.978 Z-16.263
G01 X71.976
G01 X70.341
G01 X68.707 Y-25.979 Z-16.262
G01 X67.072
G01 X65.437
G01 X63.802 Y-25.98 Z-16.261
G01 X62.168
G01 X60.552
G01 X60.13 Y-25.975 Z-16.257
G01 X59.721 Y-25.979 Z-16.233
G01 X59.329 Y-25.975 Z-16.202
G01 X58.956 Y-25.976 Z-16.153
G01 X58.642 Y-25.979 Z-16.104
G01 X58.345 Y-25.991 Z-16.044
G01 X58.15 Y-26.001 Z-16.001
G01 X57.959 Y-26.018 Z-15.952
G01 X57.769 Y-26.035 Z-15.902
G01 X57.582 Y-26.059 Z-15.845
G01 X57.406 Y-26.083 Z-15.789
G01 X57.229 Y-26.109 Z-15.732
G01 X57.053 Y-26.14 Z-15.668
G01 X56.876 Y-26.174 Z-15.602
G01 X56.699 Y-26.212 Z-15.531
G01 X56.522 Y-26.252 Z-15.458
G01 X56.346 Y-26.297 Z-15.379
G01 X56.17 Y-26.344 Z-15.298
G01 X55.92 Y-26.418 Z-15.174
G01 X55.673 Y-26.499 Z-15.043
G01 X55.426 Y-26.586 Z-14.905
G01 X55.182 Y-26.68 Z-14.759
G01 X54.94 Y-26.777 Z-14.608
G01 X54.703 Y-26.883 Z-14.447
G01 X54.47 Y-26.994 Z-14.28
G01 X54.238 Y-27.107 Z-14.11
G01 X53.958 Y-27.258 Z-13.887
G01 X53.684 Y-27.415 Z-13.654
G01 X53.418 Y-27.578 Z-13.413
G01 X53.16 Y-27.747 Z-13.164
G01 X52.912 Y-27.921 Z-12.907
G01 X52.674 Y-28.098 Z-12.645
G01 X52.441 Y-28.274 Z-12.38
G01 X52.222 Y-28.453 Z-12.109
G01 X52.072 Y-28.578 Z-11.918
G01 X51.929 Y-28.704 Z-11.723
G01 X51.79 Y-28.832 Z-11.525
G01 X51.654 Y-28.962 Z-11.321
G01 X51.532 Y-29.078 Z-11.136
G01 X51.411 Y-29.197 Z-10.945
G01 X51.294 Y-29.318 Z-10.748
G01 X51.067 Y-29.556 Z-10.349
G01 X50.427 Y-30.255 Z-9.238
G01 X49.787 Y-30.954 Z-8.127
G01 X49.146 Y-31.654 Z-7.016
G01 X48.505 Y-32.357 Z-5.905
G01 X47.863 Y-33.059 Z-4.794
G01 X47.8 Y-33.13 Z-4.715
G01 X47.721 Y-33.223 Z-4.661
G01 X47.68 Y-33.28 Z-4.642
G01 X47.638 Y-33.335 Z-4.625
G01 X47.593 Y-33.397 Z-4.614
G01 X47.547 Y-33.458 Z-4.605
G01 X47.5 Y-33.521 Z-4.601
G01 X47.451 Y-33.583 Z-4.598
G01 X47.402 Y-33.643 Z-4.6
G01 X47.352 Y-33.703 Z-4.602
G01 X47.305 Y-33.758 Z-4.606
G01 X47.256 Y-33.812 Z-4.611
G01 X47.213 Y-33.859 Z-4.616
G01 X47.168 Y-33.905 Z-4.622
G01 X47.132 Y-33.941 Z-4.626
G01 X47.095 Y-33.977 Z-4.63
G01 X47.041 Y-34.022 Z-4.629
G01 X47.013 Y-34.038 Z-4.615
G01 X46.28 Y-34.039 Z-3.344
G01 X45.546 Z-2.073
G01 X45.433 Y-34.053 Z-1.849
G01 X45.334 Y-34.093 Z-1.599
G01 X45.258 Y-34.157 Z-1.337
G01 X45.208 Y-34.244 Z-1.076
G01 X45.192 Y-34.353 Z-0.831
G01 X45.214 Y-34.481 Z-0.615
G01 X45.242 Y-34.551 Z-0.522
G01 X45.282 Y-34.626 Z-0.441
G01 X45.334 Y-34.705 Z-0.375
G01 X45.4 Y-34.787 Z-0.324
G01 X45.571 Y-34.984 Z-0.21
G01 X45.742 Y-35.181 Z-0.065
G01 X45.905 Y-35.37 Z0.109
G01 X46.055 Y-35.543 Z0.308
G01 X46.183 Y-35.691 Z0.529
G01 X46.284 Y-35.807 Z0.77
G01 X46.321 Y-35.851 Z0.896
G01 X46.349 Y-35.883 Z1.026
G01 X46.367 Y-35.903 Z1.159
G01 X46.373 Y-35.91 Z1.296
G00 Z11.296
G00 Z21.296
G00 Z45
G00 X47.875 Y3.037
G00 Z20.744
G00 Z10.744
G01 Z0.744 F2000
G01 X47.866 Y3.033 Z0.612 F2292
G01 X47.841 Y3.021 Z0.482
G01 X47.801 Y3.002 Z0.357
G01 X47.747 Y2.976 Z0.236
G01 X47.603 Y2.907 Z0.007
G01 X47.419 Y2.819 Z-0.201
G01 X47.207 Y2.717 Z-0.385
G01 X46.976 Y2.606 Z-0.541
G01 X46.737 Y2.492 Z-0.668
G01 X46.501 Y2.378 Z-0.76
G01 X46.405 Y2.325 Z-0.802
G01 X46.323 Y2.266 Z-0.858
G01 X46.254 Y2.202 Z-0.927
G01 X46.198 Y2.132 Z-1.007
G01 X46.121 Y1.984 Z-1.197
G01 X46.089 Y1.829 Z-1.414
G01 X46.096 Y1.674 Z-1.646
G01 X46.138 Y1.526 Z-1.88
G01 X46.21 Y1.392 Z-2.105
G01 X46.307 Y1.28 Z-2.308
G01 X46.997 Y0.65 Z-3.503
G01 X47.687 Y0.02 Z-4.698
G01 X48.376 Y-0.61 Z-5.892
G01 X49.066 Y-1.239 Z-7.087
G01 X49.756 Y-1.869 Z-8.282
G01 X50.446 Y-2.499 Z-9.476
G01 X51.132 Y-3.126 Z-10.663
G01 X51.308 Y-3.284 Z-10.962
G01 X51.488 Y-3.439 Z-11.252
G01 X51.62 Y-3.55 Z-11.455
G01 X51.756 Y-3.658 Z-11.652
G01 X51.893 Y-3.765 Z-11.845
G01 X52.032 Y-3.87 Z-12.033
G01 X52.229 Y-4.012 Z-12.284
G01 X52.436 Y-4.154 Z-12.535
G01 X52.609 Y-4.269 Z-12.734
G01 X52.787 Y-4.382 Z-12.931
G01 X52.973 Y-4.495 Z-13.125
G01 X53.164 Y-4.606 Z-13.316
G01 X53.36 Y-4.714 Z-13.504
G01 X53.56 Y-4.819 Z-13.686
G01 X53.763 Y-4.921 Z-13.863
G01 X53.97 Y-5.018 Z-14.034
G01 X54.184 Y-5.114 Z-14.203
G01 X54.401 Y-5.205 Z-14.365
G01 X54.618 Y-5.291 Z-14.52
G01 X54.837 Y-5.371 Z-14.667
G01 X54.982 Y-5.421 Z-14.762
G01 X55.127 Y-5.469 Z-14.853
G01 X55.416 Y-5.557 Z-15.024
G01 X55.647 Y-5.621 Z-15.152
G01 X55.885 Y-5.68 Z-15.276
G01 X56.127 Y-5.734 Z-15.395
G01 X56.373 Y-5.782 Z-15.507
G01 X56.622 Y-5.824 Z-15.613
G01 X56.873 Y-5.861 Z-15.713
G01 X57.125 Y-5.89 Z-15.805
G01 X57.379 Y-5.913 Z-15.89
G01 X57.603 Y-5.927 Z-15.958
G01 X57.832 Y-5.938 Z-16.022
G01 X58.069 Y-5.943 Z-16.082
G01 X58.316 Z-16.135
G01 X58.663 Y-5.942 Z-16.198
G01 X59.026 Z-16.252
G01 X59.399 Z-16.293
G01 X59.778 Z-16.323
G01 X60.161 Y-5.941 Z-16.341
G01 X60.55 Z-16.347
G01 X62.168 Y-5.942
G01 X63.802
G01 X65.437
G01 X67.072
G01 X68.707
G01 X70.341
G01 X71.976
G01 X73.611
G01 X75.246
G01 X76.88
G01 X78.515
G01 X80.15
G01 X80.257 Y-5.944
G01 X80.365 Y-5.952
G01 X80.471 Y-5.966
G01 X80.577 Y-5.985
G01 X80.682 Y-6.009
G01 X80.785 Y-6.039
G01 X80.887 Y-6.074
G01 X80.986 Y-6.113
G01 X81.084 Y-6.158
G01 X81.179 Y-6.208
G01 X81.272 Y-6.263
G01 X81.362 Y-6.322
G01 X81.448 Y-6.385
G01 X81.532 Y-6.453
G01 X81.611 Y-6.525
G01 X81.687 Y-6.601
G01 X81.759 Y-6.681
G01 X81.827 Y-6.764
G01 X81.891 Y-6.851
G01 X81.95 Y-6.941
G01 X82.004 Y-7.033
G01 X82.054 Y-7.128
G01 X82.099 Y-7.226
G01 X82.139 Y-7.326
G01 X82.174 Y-7.428
G01 X82.203 Y-7.531
G01 X82.228 Y-7.636
G01 X82.246 Y-7.741
G01 X82.26 Y-7.848
G01 X82.268 Y-7.955
G01 X82.271 Y-8.063
G01 Y-9.65
G01 Y-11.238
G01 Y-12.825
G01 Y-14.413
G01 Y-16
G01 Y-17.587
G01 Y-19.175
G01 Y-20.763
G01 Y-22.35
G01 Y-23.938
G01 X82.268 Y-24.045
G01 X82.26 Y-24.152
G01 X82.246 Y-24.259
G01 X82.228 Y-24.364
G01 X82.203 Y-24.469
G01 X82.174 Y-24.572
G01 X82.139 Y-24.674
G01 X82.099 Y-24.774
G01 X82.054 Y-24.872
G01 X82.004 Y-24.967
G01 X81.95 Y-25.059
G01 X81.891 Y-25.149
G01 X81.827 Y-25.236
G01 X81.759 Y-25.319
G01 X81.687 Y-25.399
G01 X81.611 Y-25.475
G01 X81.532 Y-25.547
G01 X81.448 Y-25.615
G01 X81.362 Y-25.678
G01 X81.272 Y-25.737
G01 X81.179 Y-25.792
G01 X81.084 Y-25.842
G01 X80.986 Y-25.887
G01 X80.887 Y-25.926
G01 X80.785 Y-25.961
G01 X80.682 Y-25.991
G01 X80.577 Y-26.015
G01 X80.471 Y-26.034
G01 X80.365 Y-26.048
G01 X80.257 Y-26.056
G01 X80.15 Y-26.058
G01 X78.515
G01 X76.88
G01 X75.246
G01 X73.611
G01 X71.976
G01 X70.341
G01 X68.707
G01 X67.072
G01 X65.437 Y-26.059
G01 X63.802
G01 X62.168
G01 X60.551 Y-26.06 Z-16.346
G01 X60.127 Y-26.057 Z-16.341
G01 X59.716 Y-26.058 Z-16.319
G01 X59.32 Y-26.057 Z-16.285
G01 X58.945 Y-26.055 Z-16.238
G01 X58.631 Y-26.06 Z-16.187
G01 X58.334 Y-26.071 Z-16.128
G01 X58.138 Y-26.083 Z-16.084
G01 X57.946 Y-26.098 Z-16.036
G01 X57.757 Y-26.116 Z-15.984
G01 X57.569 Y-26.139 Z-15.928
G01 X57.393 Y-26.164 Z-15.873
G01 X57.217 Y-26.191 Z-15.814
G01 X57.04 Y-26.221 Z-15.751
G01 X56.863 Y-26.256 Z-15.685
G01 X56.686 Y-26.293 Z-15.614
G01 X56.509 Y-26.334 Z-15.54
G01 X56.333 Y-26.379 Z-15.461
G01 X56.156 Y-26.426 Z-15.379
G01 X55.906 Y-26.5 Z-15.256
G01 X55.658 Y-26.581 Z-15.125
G01 X55.411 Y-26.668 Z-14.986
G01 X55.167 Y-26.762 Z-14.841
G01 X54.926 Y-26.861 Z-14.688
G01 X54.688 Y-26.967 Z-14.528
G01 X54.455 Y-27.078 Z-14.361
G01 X54.223 Y-27.192 Z-14.189
G01 X53.943 Y-27.342 Z-13.965
G01 X53.669 Y-27.5 Z-13.732
G01 X53.402 Y-27.664 Z-13.491
G01 X53.143 Y-27.833 Z-13.241
G01 X52.893 Y-28.007 Z-12.985
G01 X52.655 Y-28.184 Z-12.722
G01 X52.423 Y-28.361 Z-12.455
G01 X52.203 Y-28.54 Z-12.184
G01 X52.054 Y-28.667 Z-11.991
G01 X51.91 Y-28.793 Z-11.796
G01 X51.77 Y-28.921 Z-11.597
G01 X51.633 Y-29.052 Z-11.393
G01 X51.511 Y-29.168 Z-11.207
G01 X51.391 Y-29.287 Z-11.015
G01 X51.273 Y-29.409 Z-10.817
G01 X51.048 Y-29.648 Z-10.418
G01 X50.408 Y-30.347 Z-9.307
G01 X49.769 Y-31.046 Z-8.196
G01 X49.128 Y-31.747 Z-7.085
G01 X48.487 Y-32.449 Z-5.974
G01 X47.845 Y-33.152 Z-4.863
G01 X47.78 Y-33.224 Z-4.782
G01 X47.698 Y-33.317 Z-4.726
G01 X47.607 Y-33.427 Z-4.689
G01 X47.559 Y-33.488 Z-4.678
G01 X47.511 Y-33.548 Z-4.667
G01 X47.46 Y-33.61 Z-4.663
G01 X47.408 Y-33.671 Z-4.659
G01 X47.357 Y-33.731 Z-4.66
G01 X47.304 Y-33.79 Z-4.661
G01 X47.253 Y-33.844 Z-4.664
G01 X47.202 Y-33.897 Z-4.668
G01 X47.155 Y-33.943 Z-4.672
G01 X47.108 Y-33.988 Z-4.676
G01 X47.069 Y-34.023 Z-4.678
G01 X47.029 Y-34.058 Z-4.68
G01 X46.971 Y-34.103 Z-4.676
G01 X46.942 Y-34.121 Z-4.657
G01 X46.208 Z-3.386
G01 X45.474 Z-2.115
G01 X45.361 Y-34.135 Z-1.89
G01 X45.263 Y-34.175 Z-1.641
G01 X45.186 Y-34.239 Z-1.378
G01 X45.136 Y-34.326 Z-1.118
G01 X45.12 Y-34.435 Z-0.873
G01 X45.142 Y-34.563 Z-0.656
G01 X45.17 Y-34.633 Z-0.563
G01 X45.21 Y-34.708 Z-0.483
G01 X45.263 Y-34.787 Z-0.416
G01 X45.329 Y-34.869 Z-0.366
G01 X45.499 Y-35.066 Z-0.252
G01 X45.67 Y-35.263 Z-0.106
G01 X45.833 Y-35.452 Z0.068
G01 X45.983 Y-35.625 Z0.267
G01 X46.111 Y-35.773 Z0.488
G01 X46.212 Y-35.889 Z0.728
G01 X46.249 Y-35.933 Z0.855
G01 X46.277 Y-35.965 Z0.985
G01 X46.295 Y-35.985 Z1.118
G01 X46.301 Y-35.992 Z1.254
G00 Z11.254
G00 Z21.254
G00 Z45
G00 X47.851 Y3.132
G00 Z20.68
G00 Z10.68
G01 Z0.68 F2000
G01 X47.842 Y3.127 Z0.548 F2292
G01 X47.817 Y3.115 Z0.419
G01 X47.777 Y3.096 Z0.293
G01 X47.723 Y3.07 Z0.172
G01 X47.579 Y3.001 Z-0.057
G01 X47.395 Y2.913 Z-0.265
G01 X47.183 Y2.811 Z-0.448
G01 X46.952 Y2.701 Z-0.605
G01 X46.713 Y2.586 Z-0.731
G01 X46.477 Y2.473 Z-0.824
G01 X46.381 Y2.42 Z-0.866
G01 X46.299 Y2.361 Z-0.922
G01 X46.23 Y2.296 Z-0.991
G01 X46.174 Y2.227 Z-1.071
G01 X46.097 Y2.079 Z-1.261
G01 X46.065 Y1.924 Z-1.477
G01 X46.072 Y1.769 Z-1.709
G01 X46.114 Y1.62 Z-1.944
G01 X46.186 Y1.487 Z-2.169
G01 X46.283 Y1.375 Z-2.372
G01 X46.973 Y0.745 Z-3.567
G01 X47.663 Y0.115 Z-4.761
G01 X48.353 Y-0.515 Z-5.956
G01 X49.043 Y-1.144 Z-7.151
G01 X49.733 Y-1.774 Z-8.345
G01 X50.423 Y-2.404 Z-9.54
G01 X51.109 Y-3.031 Z-10.728
G01 X51.286 Y-3.189 Z-11.027
G01 X51.468 Y-3.345 Z-11.317
G01 X51.6 Y-3.456 Z-11.521
G01 X51.736 Y-3.565 Z-11.719
G01 X51.874 Y-3.672 Z-11.913
G01 X52.013 Y-3.778 Z-12.102
G01 X52.211 Y-3.919 Z-12.354
G01 X52.416 Y-4.064 Z-12.606
G01 X52.59 Y-4.178 Z-12.805
G01 X52.77 Y-4.292 Z-13.002
G01 X52.956 Y-4.404 Z-13.197
G01 X53.146 Y-4.517 Z-13.39
G01 X53.344 Y-4.624 Z-13.576
G01 X53.544 Y-4.729 Z-13.759
G01 X53.748 Y-4.831 Z-13.936
G01 X53.955 Y-4.929 Z-14.108
G01 X54.168 Y-5.026 Z-14.278
G01 X54.385 Y-5.117 Z-14.44
G01 X54.603 Y-5.203 Z-14.595
G01 X54.822 Y-5.283 Z-14.743
G01 X54.967 Y-5.333 Z-14.837
G01 X55.112 Y-5.381 Z-14.928
G01 X55.401 Y-5.47 Z-15.1
G01 X55.632 Y-5.534 Z-15.229
G01 X55.87 Y-5.592 Z-15.352
G01 X56.111 Y-5.648 Z-15.472
G01 X56.358 Y-5.695 Z-15.584
G01 X56.607 Y-5.738 Z-15.69
G01 X56.858 Y-5.774 Z-15.79
G01 X57.11 Y-5.804 Z-15.883
G01 X57.364 Y-5.828 Z-15.969
G01 X57.588 Y-5.843 Z-16.037
G01 X57.817 Y-5.853 Z-16.101
G01 X58.054 Y-5.859 Z-16.16
G01 X58.301 Y-5.86 Z-16.215
G01 X58.651 Y-5.859 Z-16.279
G01 X59.016 Y-5.858 Z-16.332
G01 X59.391 Z-16.375
G01 X59.773 Z-16.405
G01 X60.158 Y-5.859 Z-16.423
G01 X60.549 Y-5.858 Z-16.429
G01 X62.168
G01 X63.802
G01 X65.437
G01 X67.072
G01 X68.707
G01 X70.341
G01 X71.976
G01 X73.611
G01 X75.246
G01 X76.88
G01 X78.515 Y-5.859
G01 X80.15 Z-16.43
G01 X80.262 Y-5.862
G01 X80.317 Y-5.865 Z-16.429
G01 X80.373 Y-5.87 Z-16.43
G01 X80.428 Y-5.877 Z-16.429
G01 X80.484 Y-5.884 Z-16.43
G01 X80.539 Y-5.894 Z-16.429
G01 X80.594 Y-5.904 Z-16.43
G01 X80.648 Y-5.916 Z-16.429
G01 X80.702 Y-5.929 Z-16.43
G01 X80.756 Y-5.944 Z-16.429
G01 X80.81 Y-5.96 Z-16.43
G01 X80.863 Y-5.977 Z-16.429
G01 X80.915 Y-5.996 Z-16.43
G01 X80.967 Y-6.016 Z-16.429
G01 X81.019 Y-6.037 Z-16.43
G01 X81.07 Y-6.06 Z-16.429
G01 X81.121 Y-6.084 Z-16.43
G01 X81.17 Y-6.109 Z-16.429
G01 X81.22 Y-6.136 Z-16.43
G01 X81.268 Y-6.164 Z-16.429
G01 X81.316 Y-6.192 Z-16.43
G01 X81.363 Y-6.223 Z-16.429
G01 X81.409 Y-6.254 Z-16.43
G01 X81.454 Y-6.286 Z-16.429
G01 X81.499 Y-6.32 Z-16.43
G01 X81.542 Y-6.355 Z-16.429
G01 X81.586 Y-6.39 Z-16.43
G01 X81.627 Y-6.427 Z-16.429
G01 X81.668 Y-6.465 Z-16.43
G01 X81.708 Y-6.504 Z-16.429
G01 X81.747 Y-6.544 Z-16.43
G01 X81.785 Y-6.585 Z-16.429
G01 X81.822 Y-6.627 Z-16.43
G01 X81.858 Y-6.67 Z-16.429
G01 X81.893 Y-6.713 Z-16.43
G01 X81.926 Y-6.758 Z-16.429
G01 X81.959 Y-6.803 Z-16.43
G01 X81.99 Y-6.85 Z-16.429
G01 X82.02 Y-6.897 Z-16.43
G01 X82.049 Y-6.945 Z-16.429
G01 X82.077 Y-6.993 Z-16.43
G01 X82.103 Y-7.042 Z-16.429
G01 X82.129 Y-7.092 Z-16.43
G01 X82.152 Y-7.143 Z-16.429
G01 X82.175 Y-7.193 Z-16.43
G01 X82.196 Y-7.245 Z-16.429
G01 X82.217 Y-7.297 Z-16.43
G01 X82.235 Y-7.35 Z-16.429
G01 X82.253 Y-7.403 Z-16.43
G01 X82.269 Y-7.456 Z-16.429
G01 X82.284 Y-7.51 Z-16.43
G01 X82.296 Y-7.564 Z-16.429
G01 X82.309 Y-7.619 Z-16.43
G01 X82.319 Y-7.674 Z-16.429
G01 X82.328 Y-7.729 Z-16.43
G01 X82.336 Y-7.784 Z-16.429
G01 X82.343 Y-7.84 Z-16.43
G01 X82.347 Y-7.895 Z-16.429
G01 X82.351 Y-7.951 Z-16.43
G01 X82.353 Y-8.063
G01 Y-9.65
G01 Y-11.238
G01 Y-12.825
G01 Y-14.413
G01 Y-16
G01 Y-17.587
G01 Y-19.175
G01 Y-20.763
G01 Y-22.35
G01 Y-23.938
G01 X82.351 Y-24.049
G01 X82.347 Y-24.105 Z-16.429
G01 X82.343 Y-24.16 Z-16.43
G01 X82.336 Y-24.216 Z-16.429
G01 X82.328 Y-24.271 Z-16.43
G01 X82.319 Y-24.326 Z-16.429
G01 X82.309 Y-24.381 Z-16.43
G01 X82.296 Y-24.436 Z-16.429
G01 X82.284 Y-24.49 Z-16.43
G01 X82.269 Y-24.544 Z-16.429
G01 X82.253 Y-24.597 Z-16.43
G01 X82.235 Y-24.65 Z-16.429
G01 X82.217 Y-24.703 Z-16.43
G01 X82.196 Y-24.755 Z-16.429
G01 X82.175 Y-24.807 Z-16.43
G01 X82.152 Y-24.857 Z-16.429
G01 X82.129 Y-24.908 Z-16.43
G01 X82.103 Y-24.958 Z-16.429
G01 X82.077 Y-25.007 Z-16.43
G01 X82.049 Y-25.055 Z-16.429
G01 X82.02 Y-25.103 Z-16.43
G01 X81.99 Y-25.15 Z-16.429
G01 X81.959 Y-25.197 Z-16.43
G01 X81.926 Y-25.242 Z-16.429
G01 X81.893 Y-25.287 Z-16.43
G01 X81.858 Y-25.33 Z-16.429
G01 X81.822 Y-25.373 Z-16.43
G01 X81.785 Y-25.415 Z-16.429
G01 X81.747 Y-25.456 Z-16.43
G01 X81.708 Y-25.496 Z-16.429
G01 X81.668 Y-25.535 Z-16.43
G01 X81.627 Y-25.573 Z-16.429
G01 X81.586 Y-25.61 Z-16.43
G01 X81.542 Y-25.645 Z-16.429
G01 X81.499 Y-25.68 Z-16.43
G01 X81.454 Y-25.714 Z-16.429
G01 X81.409 Y-25.746 Z-16.43
G01 X81.363 Y-25.777 Z-16.429
G01 X81.316 Y-25.808 Z-16.43
G01 X81.268 Y-25.836 Z-16.429
G01 X81.22 Y-25.864 Z-16.43
G01 X81.17 Y-25.891 Z-16.429
G01 X81.121 Y-25.916 Z-16.43
G01 X81.07 Y-25.94 Z-16.429
G01 X81.019 Y-25.963 Z-16.43
G01 X80.967 Y-25.984 Z-16.429
G01 X80.915 Y-26.004 Z-16.43
G01 X80.863 Y-26.023 Z-16.429
G01 X80.81 Y-26.04 Z-16.43
G01 X80.756 Y-26.056 Z-16.429
G01 X80.702 Y-26.071 Z-16.43
G01 X80.648 Y-26.084 Z-16.429
G01 X80.594 Y-26.096 Z-16.43
G01 X80.539 Y-26.106 Z-16.429
G01 X80.484 Y-26.116 Z-16.43
G01 X80.428 Y-26.123 Z-16.429
G01 X80.373 Y-26.13 Z-16.43
G01 X80.317 Y-26.135 Z-16.429
G01 X80.262 Y-26.138 Z-16.43
G01 X80.15 Y-26.141
G01 X78.515 Z-16.429
G01 X76.88 Y-26.142
G01 X75.246
G01 X73.611
G01 X71.976
G01 X70.341
G01 X68.707
G01 X67.072
G01 X65.437
G01 X63.802
G01 X62.168 Z-16.428
G01 X60.55 Y-26.143
G01 X60.124 Y-26.141 Z-16.421
G01 X59.71 Y-26.142 Z-16.4
G01 X59.312 Y-26.141 Z-16.366
G01 X58.935 Z-16.317
G01 X58.621 Y-26.144 Z-16.268
G01 X58.323 Y-26.155 Z-16.208
G01 X58.127 Y-26.167 Z-16.163
G01 X57.935 Y-26.183 Z-16.115
G01 X57.746 Y-26.201 Z-16.064
G01 X57.558 Y-26.225 Z-16.007
G01 X57.383 Y-26.249 Z-15.952
G01 X57.206 Y-26.276 Z-15.893
G01 X57.029 Y-26.307 Z-15.83
G01 X56.852 Y-26.341 Z-15.763
G01 X56.676 Y-26.379 Z-15.692
G01 X56.499 Y-26.42 Z-15.618
G01 X56.322 Y-26.465 Z-15.539
G01 X56.146 Y-26.513 Z-15.457
G01 X55.897 Y-26.588 Z-15.333
G01 X55.648 Y-26.668 Z-15.202
G01 X55.402 Y-26.756 Z-15.063
G01 X55.157 Y-26.849 Z-14.917
G01 X54.915 Y-26.948 Z-14.765
G01 X54.678 Y-27.055 Z-14.604
G01 X54.443 Y-27.164 Z-14.438
G01 X54.212 Y-27.28 Z-14.265
G01 X53.932 Y-27.431 Z-14.041
G01 X53.657 Y-27.588 Z-13.808
G01 X53.39 Y-27.753 Z-13.566
G01 X53.131 Y-27.922 Z-13.316
G01 X52.882 Y-28.097 Z-13.058
G01 X52.64 Y-28.273 Z-12.796
G01 X52.411 Y-28.452 Z-12.528
G01 X52.189 Y-28.631 Z-12.256
G01 X52.041 Y-28.758 Z-12.063
G01 X51.896 Y-28.885 Z-11.867
G01 X51.757 Y-29.014 Z-11.667
G01 X51.618 Y-29.144 Z-11.463
G01 X51.496 Y-29.261 Z-11.276
G01 X51.377 Y-29.381 Z-11.084
G01 X51.258 Y-29.502 Z-10.885
G01 X51.031 Y-29.741 Z-10.486
G01 X50.392 Y-30.44 Z-9.375
G01 X49.752 Y-31.139 Z-8.265
G01 X49.111 Y-31.839 Z-7.154
G01 X48.47 Y-32.542 Z-6.043
G01 X47.828 Y-33.244 Z-4.932
G01 X47.76 Y-33.317 Z-4.849
G01 X47.674 Y-33.41 Z-4.791
G01 X47.575 Y-33.517 Z-4.753
G01 X47.523 Y-33.576 Z-4.742
G01 X47.471 Y-33.635 Z-4.731
G01 X47.418 Y-33.697 Z-4.726
G01 X47.363 Y-33.757 Z-4.721
G01 X47.309 Y-33.816
G01 X47.252 Y-33.874
G01 X47.199 Y-33.927 Z-4.723
G01 X47.144 Y-33.979 Z-4.726
G01 X47.095 Y-34.024 Z-4.728
G01 X47.044 Y-34.068 Z-4.731
G01 X46.962 Y-34.138 Z-4.732
G01 X46.903 Y-34.186 Z-4.721
G01 X46.87 Y-34.203 Z-4.698
G01 X46.137 Z-3.427
G01 X45.403 Z-2.156
G01 X45.289 Y-34.217 Z-1.932
G01 X45.191 Y-34.257 Z-1.682
G01 X45.114 Y-34.322 Z-1.42
G01 X45.065 Y-34.409 Z-1.159
G01 X45.048 Y-34.517 Z-0.914
G01 X45.071 Y-34.645 Z-0.697
G01 X45.099 Y-34.716 Z-0.604
G01 X45.139 Y-34.791 Z-0.524
G01 X45.191 Y-34.869 Z-0.457
G01 X45.257 Y-34.952 Z-0.407
G01 X45.428 Y-35.149 Z-0.293
G01 X45.598 Y-35.346 Z-0.147
G01 X45.762 Y-35.535 Z0.026
G01 X45.911 Y-35.707 Z0.225
G01 X46.04 Y-35.856 Z0.447
G01 X46.141 Y-35.972 Z0.687
G01 X46.178 Y-36.015 Z0.814
G01 X46.206 Y-36.047 Z0.944
G01 X46.223 Y-36.067 Z1.077
G01 X46.229 Y-36.074 Z1.213
G00 Z11.213
G00 Z21.213
G00 Z45

M401
M09
/G65 P2 X0.0000 R80.1500 B0.0000 C-32.0000 (Chip Fan Sub Call)
N99 G100 T20 G53 X-600 Y0
M269
M211
M30
